X:1
T:Seamstress
T:The Seamstress
T:Modeste Mussorgsky
C:Mussorgsky
%%score { ( 1 4 ) | ( 2 3 ) }
L:1/8
Q:1/4=117
M:9/8
K:Db
V:1 treble nm="Piano" snm="Pno."
V:4 treble 
V:2 bass 
V:3 bass 
V:1
!p!"^Assai vivo" (!>!B/A/B/A/B/A/) (!>!B/A/B/A/B/A/) (!>!B/A/B/A/B/A/) | %1
 (!>!B/A/B/A/B/A/) (!>!B/A/B/A/B/A/) (!>!B/A/B/A/B/A/) | %2
 (!>!B/A/B/A/B/A/) (!>!B/A/B/A/B/A/) (!>!B/A/B/A/B/A/) | %3
 (B/A/B/A/B/A/)!<(! (f/A/B/A/B/A/)!<)! (B!>(!c).f!>)! | %4
 (B/A/B/A/B/A/)!<(! (f/A/B/A/B/A/)!<)! (B!>(!c).f!>)! | %5
 (=G/F/G/F/G/F/)!<(! (=d/F/G/F/G/F/)!<)! (G!>(!=A).d!>)! | %6
 (=G/F/G/F/G/F/)!<(! (=d/F/G/F/G/F/)!<)! (G!>(!=A).d!>)! | %7
 (B/=A/B/A/B/A/) ((B/A/B/A/B/A/))"_cresc." ((B/A/B/c/d/e/)) | %8
!mf!!<(! (f/g/f/g/f/e/) (d/e/d/e/d/e/)!<)!!>(! (!trill(!Tdc/B/) .[=A=a]!>)! | %9
!mf!!<(! (f/g/f/g/f/e/) (d/e/d/e/d/e/)!<)!!>(! (!trill(!Tdc/B/) .[=A=a]!>)! | %10
!<(! (c/d/c/d/c/B/)!<)! (=A/B/A/B/__B/_A/)!>(! (!trill(!TG2 .[Ff])!>)! | %11
!<(! (c/d/c/d/c/B/)!<)! (=A/B/A/B/__B/_A/) (G/A/G/A/G/A/) | %12
!<(! (G/A/G/A/G/A/)!<)!!>(! (G/A/G/A/G/A/) (=G/A/G/A/G/A/)!>)! | %13
!pp!"^A" ((B/A/B/A/B/A/))!<(! ((f/A/B/A/B/A/))!<)! (B!>(!c).f!>)! | %14
 (B/A/B/A/B/A/)!<(! (f/A/B/A/B/A/)!<)! (B!>(!c)!>)!.f || %15
[M:12/8]!p! (=G/F/G/F/G/F/) (=d/F/G/F/G/F/) (G=A).d!f! (=g=a)=d' | %16
!p! ((=G/F/G/F/G/F/)) (=d/F/G/F/G/F/) (G=A).d!f! (=g=a).=d' | %17
!mf! (B_cf) .[B=d] ([a_c']b)"_cresc." .[Bd] ([f__b]a) (=A_Bg) | %18
 (_A=Ae) .[_Ac] ([g__b]a) .[Ac] ([ea]g) (A=Ae) || %19
[M:9/8]!f!!<(! .[Ac] ([g__b]a) (a=a).e' .[!courtesy!=ac'] ([g'__b']_a')!<)! | %20
!p! .[g__b]!>(! ([c'e'][gb])!>)!!>(! ([c'__e'][gb])!>)!!>(! ([bd'][gb])!>)!!>(! ([ac'][ga])!>)! | %21
 .[g__b]!>(! ([c'_e'][gb])!>)!!>(! ([c'__e'][gb])!>)!!>(! ([bd'][gb])!>)!!>(! ([ac'][ga])!>)! | %22
 .[_c__e]!>(! ([fa][ce])!>)!!>(! ([f__a][ce])!>)!!>(! ([eg][ce])!>)!!>(! ([df][cd])!>)! | %23
 .[_c__e]!>(! ([f_a][ce])!>)!!>(! ([f__a][ce])!>)!!>(! ([eg][ce])!>)!!>(! ([df][cd])!>)! | %24
"_cresc." ([__ea_c']3 [dg__b]3 [_eg]) [ge'g']2 | ([__ea_c']3 [dg__b]3 [_eg]) [ge'g']2 | %26
!f! (d'/e'/d'/e'/d'/e'/ _c'/d'/c'/d'/c'/d'/ b/c'/b/c'/b/c'/ | %27
 _c'/d'/c'/d'/c'/d'/"_dim." __b/c'/b/c'/b/c'/ a/b/a/b/a/b/ | %28
 g/a/g/a/g/a/ _f/g/f/g/f/g/ e/f/e/f/e/!fermata!__b/) |"^B"!p! z (e2!<(! __e2 d- d c2)!<)! | %30
 z (_e2!<(! __e2 d- d c2)!<)! | z (a2!<(! __a2 g- g f2)!<)! | z (a2!<(! __a2 g- g f2)!<)! | %33
"_cresc." z (d'2 c'2 _c'- c' b2) | (d'/e'/d'/e'/d'/e'/)!>(! (a/b/a/b/a/b/) (g/a/g/a/g/a/)!>)! | %35
 (d/e/d/e/d/e/) (A/B/A/B/A/B/) (G/A/G/A/G/A/) |!<(! (=GA).d (__B_B).e!<)! (cb_a) | %37
 (d'/e'/d'/e'/d'/e'/)!>(! (a/b/a/b/a/b/) (g/a/g/a/g/a/)!>)! | %38
 (d/e/d/e/d/e/) (A/B/A/B/A/B/) (G/A/G/A/G/A/) |"_cresc." (=ga).d' (=ab).e' (c'd'.__b') | %40
!mf! z!>(! ([__b__b'][aa'])!>)! z!>(! ([gg'][__a__a'])!>)! z!>(! ([_a_a'][bb'])!>)! | %41
!f! z [c'e'g'__b'][I:staff +1][cega][I:staff -1] [c'e'g'b'][I:staff +1][cega][I:staff -1][c'e'g'b'] (b'/a'/g'/f'/e'/__e'/ | %42
 g'/f'/_e'/d'/c'/b/!>(! a/g/f/e/d/c/) (!>!B/A/B/A/B/A/)!>)! | %43
!p! (!>!B/A/B/A/B/A/) (!>!B/A/B/A/B/A/)"_dim." (!>!B/A/B/A/B/A/) |!pp! z9 || %45
[M:12/8]"^C" (B/A/B/A/B/A/) (f/A/B/A/B/A/)"_cresc." (Bcf) .c(ba) || %46
[M:9/8]!p! (B/A/B/A/B/A/) (f/A/B/A/B/A/) (B/A/B/c/).f || %47
[M:12/8] (=G/F/G/F/G/F/) (=d/F/G/F/G/F/)"_cresc." (G=Ad) .A(=gf) || %48
[M:9/8]!p! (=G/F/G/F/G/F/)!<(! (=d/F/G/F/G/F/)!<)! (G/F/!>(!G/=A/).d!>)! | %49
!mf! z (^c'2!<(! =b2 _b- [gb]=a^g)!<)! | z!>(! (__b_a)!>)! z!>(! (a__a)!>)! z!>(! (ag)!>)! | %51
 z (^c2!<(! =B2 _B- [GB]=A^G)!<)! | z!>(! (__B_A)!>)! z!>(! (A__A)!>)! z!>(! (AG)!>)! | %53
 z!>(! (_FE)!>)! z!>(! (ED)!>)! z!>(! (_CB,)!>)! | %54
!<(! .=G,(_A,=F)!<)! z!>(! ([_F,_F][E,E])!>)!!<(! .=D(E_c)!<)! | %55
 z!>(! ([__B,__B][A,A])!>)!"_cresc." .=A(_Bg) ._c(=cb) | .a([=df]_c) .B([ef]g) .__b([=ceg]__B) | %57
 x3 a6 |!p! (A3 d3 d3 |!<(! B3) (_c3!<)! =cBc |!>(! A3)!>)! ([fa]6 |!<(! [df]6)!<)!!p! [ef]3 | %62
!>(! x3!>)!!pp! (B/!<(!A/B/A/B/A/ B/A/B/c/)!<)!!p!.f |!p!!>(! z2 z (_c3 =cBc!>)! | %64
!pp! A3)!<(! (B/A/B/A/B/A/ B/c/e/g/).b!<)!!mp! |!pp!!>(! z2 z (_c3 [=cf]Bc!>)! | %66
!ppp!!>(! [df]2) z A3- A2 z | %67
[Q:1/4=110]"^ritardando poco a poco"[Q:3/8=80] z2 z[Q:3/8=75] A3-[Q:3/8=70] A2!ppp! z!>)! | %68
[Q:3/8=65] z9[Q:3/8=60][Q:3/8=55] | !fermata!z9[Q:1/4=122]"^a tempo"!pp! | .A.B.d z2 z .a.b.d' | %71
 z2 z!8va(! .a'.b'.d'' .[a'd''a'']!8va)! z !fermata!z |] %72
V:2
 z9 | (!>!F/D/A,/D/A,/D/) (!>!F/D/A,/D/A,/D/) (!>!F/E/A,/E/A,/E/) | %2
 (!>!F/D/A,/D/A,/D/) (!>!F/D/A,/D/A,/D/) (!>!F/E/A,/E/A,/E/) | %3
 (F/D/A,/D/A,/D/) (F/D/A,/D/A,/D/) (G/E/A,/E/A,/E/) | %4
 (F/D/A,/D/A,/D/) (F/D/A,/D/A,/D/) (G/E/A,/E/A,/E/) | %5
 (=D/B,/F,/B,/F,/B,/) (D/B,/F,/B,/F,/B,/) (E/C/F,/C/F,/C/) | %6
 (=D/B,/F,/B,/F,/B,/) (D/B,/F,/B,/F,/B,/) (E/C/F,/C/F,/C/) | %7
 (B,/=A,/B,/A,/B,/A,/) ((B,/A,/B,/A,/B,/A,/)) ((B,/A,/B,/C/D/E/)) | %8
 (F/G/F/G/F/E/) (D/E/D/E/D/E/) (!trill(!TDC/B,/) .=A, | %9
 (F/G/F/G/F/E/) (D/E/D/E/D/E/) (!trill(!TDC/B,/) .=A, | %10
 (C/D/C/D/C/B,/) (=A,/B,/A,/B,/__B,/_A,/) (!trill(!TG,2 .F,) | %11
 (C/D/C/D/C/B,/) (=A,/B,/A,/B,/__B,/_A,/) .G,/ z/ z z | E3 (E3 =E3 | %13
 (F/)D/A,/D/A,/D/) (F/D/A,/D/A,/D/) (G/E/A,/E/A,/E/) | %14
 (F/D/A,/D/A,/D/) (F/D/A,/D/A,/D/) (G/E/A,/E/A,/E/) || %15
[M:12/8] (=D/B,/F,/B,/F,/B,/) (D/B,/F,/B,/F,/B,/) (E/C/F,/C/).F,[K:treble] (ec).F | %16
[K:bass] ((=D/B,/F,/B,/F,/B,/)) ((D/B,/F,/B,/F,/B,/)) (E/C/F,/C/).F,[K:treble] (ec).F | %17
 (A/F/B,/F/B,/F/) (A/F/B,/F/B,/F/) (A/F/B,/F/B,/F/) (G/E/B,/E/B,/E/) | %18
 (G/E/!courtesy!_A,/E/A,/E/) (G/E/A,/E/A,/E/) (G/E/A,/E/A,/E/) (G/E/C/E/C/E/) || %19
[M:9/8] (A,/E/G/__B/c/e/) (g/e/c/e/c/e/) (!courtesy!_A/e/g/__b/c'/e'/) | %20
 (A,/E/G/__B/c/e/ g/!courtesy!_e/c/B/G/E/) (A,/E/G/A/G/E/) | %21
 (A,/E/G/__B/c/e/ g/!courtesy!_e/c/B/G/E/) (A,/E/G/A/G/E/) | %22
 (A,/D/__E/F/A/_c/ d/c/A/F/E/D/) (A,/D/_E/F/E/D/) | %23
 (A,/D/__E/F/A/_c/ d/c/A/F/E/D/) (A,/D/_E/F/E/D/) | (G/F/G/F/G/F/) (G/A/G/A/G/A/) .__B.=c.e | %25
 (G/F/G/F/G/F/) (G/A/G/A/G/A/) .__B.=c.e | ([A,DFA]3 [=DFA_c]3 [EGB]3 | [__EG_c]3 [G__Bd]3 [A=c]3 | %28
 [__Bd]3 [Ac-]3 [Gc]2) !fermata!z |[K:bass] x3 (C2 D- D !courtesy!_E2) | x3 (C2 D- D E2) | %31
 x3[K:treble] (F2 G- G A2) |[K:bass] x3[K:treble] (F2 G- G A2) | %33
[K:bass] x3[K:treble] (B2 _c- c=cd) |[K:bass] [G,A,D]2 z [G,A,D]2 z [G,A,D]2 z | %35
 [G,A,D]2 z [G,A,D]2 z [G,A,D]2 z | %36
 (D/A,/D/A,/D/A,/) ([DE]/!courtesy!_A,/[DE]/A,/[DE]/A,/) (E/A,/E/A,/E/G/) | %37
[K:treble] [GAd]2 z [GAd]2 z [GAd]2 z | [GA]2 z G2 z .B,.D.E | %39
 (d/A/d/A/d/A/) ([de]/!courtesy!_A/[de]/A/[de]/A/) ([eg]/A/[eg]/A/[eg]/A/) | %40
 .__B, [deg]2 .B, [d_f]2 .B, [deg]2 | .A, x x x2 x !arpeggio![Aegd']2 z | %42
 z[K:bass] (A,,A,) .A z z z2 z | (F/D/A,/D/A,/D/) (F/D/A,/D/A,/D/) (F/E/A,/E/A,/E/) | %44
 (F/D/A,/D/A,/D/) (F/D/A,/D/A,/D/) (F/E/A,/E/A,/E/) || %45
[M:12/8] (F/A,/D,/A,/D,/A,/) ((D/A,/D,/A,/D,/A,/)) (G/E/A,/E/).A,[K:treble] (eG).C || %46
[M:9/8][K:bass] (F/A,/D,/A,/D,/A,/) ((D/A,/D,/A,/D,/A,/)) (G/A,/D,/A,/).D, || %47
[M:12/8] (=D/F,/B,,/F,/B,,/F,/) (B,/F,/B,,/F,/B,,/F,/) (E/F,/B,,/F,/).B,,[K:treble] (cE).=A, || %48
[M:9/8][K:bass] (=D/F,/B,,/F,/B,,/F,/) (B,/F,/B,,/F,/B,,/F,/) (E/F,/B,,/F,/).B,, | %49
 (=A,,/^C,/=E,/=A,/^C/=E/ =G/E/C/A,/E,/C,/) (A,,/C,/E,/A,/).[CE] | %50
 ._A,, [_E_G]2 .A,, [EG]2 .A,, [EG]2 | %51
 (=A,,,/^C,,/=E,,/=A,,/^C,/=E,/ =G,/E,/C,/A,,/E,,/C,,/) (A,,,/C,,/E,,/A,,/).[C,E,] | %52
 ._A,,, [_E,_G,]2 .A,,, [E,G,]2 .A,,, [E,G,]2 | .A,,, [B,,D,]2 .A,,, [B,,D,]2 .A,,, [A,,D,]2 | %54
 .A,,, [D,F,]2 [A,,C,]2 z .A,,, [E,_G,]2 | [D,F,]2 z .!courtesy!_A,, [A,DA]2 .A,, [A,EG]2 | %56
 !trill(!TA,6- A,3- | A,3 G6 | (F/D/A,/D/A,/D/) (F/D/A,/D/A,/D/) (F/D/A,/D/A,/D/) | %59
 (F/D/A,/D/A,/D/) (F/D/A,/D/A,/D/) (G/E/A,/E/A,/E/) | %60
 (F/D/A,/D/A,/D/) (F/D/A,/D/A,/D/) (F/D/A,/D/A,/D/) | %61
 (F/D/A,/D/A,/D/) (F/D/A,/D/A,/D/) (G/E/A,/E/A,/E/) | %62
 (F/D/A,/D/A,/D/) (F/D/A,/D/A,/D/) (G/E/A,/E/A,/E/) | %63
 (F/D/A,/D/A,/D/) (F/D/A,/D/A,/D/) (G/E/A,/E/A,/E/) | %64
 (F/D/A,/D/A,/D/) (F/D/A,/D/A,/D/) (G/E/A,/E/A,/E/) | %65
 (F/D/A,/D/A,/D/) (F/D/A,/D/A,/D/) (G/E/A,/E/A,/E/) | %66
 (F/D/A,/D/A,/D/) (F/D/A,/D/A,/D/) (F/E/A,/E/A,/E/) | %67
 (F/D/A,/D/A,/D/) (F/D/A,/D/A,/D/) (F/E/A,/E/A,/E/) | (FDA,F EA,FD A, | %69
 FEA,- !fermata!A,3) (B,C).F | z2 z[K:treble] (Bc).f z2 z | (bc').f' z2 z .[af'] z !fermata!z |] %72
V:3
 x9 | x9 | x9 | x9 | x9 | x9 | x9 | x9 | x9 | x9 | x9 | x9 | _C3 (=C6 | z9) | x9 || %15
[M:12/8] x9[K:treble] x3 |[K:bass] x9[K:treble] x3 | x12 | x12 ||[M:9/8] x9 | x9 | x9 | x9 | x9 | %24
 x9 | x9 | x9 | x9 | x9 |[K:bass] (A,,/E,/G,/C/).E [G,A,]6 | (A,,/E,/G,/C/).E [G,A,]6 | %31
 (A,,/D,/F,/_C/)[K:treble].A [_CD]6 |[K:bass] (A,,/D,/F,/_C/)[K:treble].A [_CD]6 | %33
[K:bass] (A,,/D,/_F,/__A,/).D[K:treble] [_F__A]6 |[K:bass] D,2 A,, D,2 A,, .D,.E,.A, | %35
 D,2 A,, D,2 A,, .D,.E,.A, | x9 |[K:treble] D2 A, D2 A, .D.E.A | D2 A, D2 A, A,2 z | x9 | x9 | x9 | %42
 x[K:bass] x8 | x9 | x9 ||[M:12/8] x9[K:treble] x3 ||[M:9/8][K:bass] x9 || %47
[M:12/8] x9[K:treble] x3 ||[M:9/8][K:bass] x9 | x9 | x9 | x9 | x9 | x9 | x9 | x9 | %56
 [=DF]2 z [EG]2 z [CE]2 z | [DF]2 !trill)!z (_C/A,/C/A,/C/A,/) (=C/A,/C/A,/C/A,/) | x9 | x9 | x9 | %61
 x9 | x9 | x9 | x9 | x9 | x9 | x9 | x9 | x9 | x3[K:treble] x6 | x9 |] %72
V:4
 x9 | x9 | x9 | x9 | x9 | x9 | x9 | x9 | x9 | x9 | x9 | x9 | x9 | x9 | x9 ||[M:12/8] x12 | x12 | %17
 x12 | x12 ||[M:9/8] x9 | x9 | x9 | x9 | x9 | x9 | x9 | x9 | x9 | x9 | (__BeB __eBd BcA) | %30
 (__BeB __eBd BcA) | (__eae __aeg efd) | (__e_ae __aeg efd) | (_fd'f c'f_c' fbe) | x9 | x9 | %36
 F F2 __A A2 _G c2 | x9 | x9 | =e f2 _g =g2 _a __b2 | x9 | x9 | x9 | x9 | x9 ||[M:12/8] x12 || %46
[M:9/8] x9 ||[M:12/8] x12 ||[M:9/8] x9 | (=e=ge geg- eg^g) | x [ce]2 x [ce]2 x [ce]2 | %51
 (=E=GE GEG- EG^G) | x [C_E]2 x [CE]2 x [CE]2 | x [__A,B,]2 x [A,B,]2 x _F,2 | x9 | x9 | x9 | %57
 A"_dim."([d_f][d=f]) (efe f_f=f) | A6 (c2 A- | A3) A3 A3 | (A3 d3 c2 A | B3 _c3 =cBc | A3) x6 | %63
 x3 A3 A3 | x9 | x3 A3 A3- | A2 x x6 | x9 | x9 | x9 | x9 | x3!8va(! x4!8va)! x2 |] %72

